X:1
T:Title
%%score { ( 1 3 ) | ( 2 4 ) }
L:1/8
Q:1/4=94
M:4/4
K:F
V:1 treble nm="Grand Piano"
V:3 treble 
V:2 bass 
V:4 bass 
V:1
 [DF]2 (3[DF][DF][DF] [DG]>[DF] [^CE]>[DF] | [DB]>[CA] [DB]>[_Ec] [Fd]4 | %2
w: W.~J.~Kirkpatrick * * * * * * *||
 d2 (3ccc [Af]2 [FA]>[FA] | [Ec]>[EB] [EA]>[EG] F>_E D>E | %4
w: ||
 [DF]2 (3[DF][DF][DF] [DG]>[DF] [^CE]>[DF] | [DB]>[CA] [DB]>[_Ec] [Fd]4 | d2 (3ccc f>f A>A | %7
w: |||
 c4 z4 | [^Fd]2 (3[Fd][Fd][Fd] [Fd]2 [FA]2 | B2 (3BBB B2 G2 | %10
w: |||
 [Ec]2 (3[Ec][Ec][Ec] [Ec]2 [EG]>[EG] | A>B A>G F4 | [^Fd]2 (3[Fd][Fd][Fd] [Fd]2 [FA]2 | %13
w: |||
 B2 (3BBB B2 G2 | [Ec]2 [Ec]>[Ec] [Ec]>[Ec] [Bd]>[Be] | [Af]6 z2 | %16
w: |||
 [DF]2 (3[DF][DF][DF] [DG]>[DF] [^CE]>[DF] | [DB]>[CA] [DB]>[_Ec] [Fd]4 | %18
w: ||
 d2 (3ccc [Af]2 [FA]>[FA] | [Ec]>[EB] [EA]>[EG] F>_E D>E | %20
w: ||
 [DF]2 (3[DF][DF][DF] [DG]>[DF] [^CE]>[DF] | [DB]>[CA] [DB]>[_Ec] [Fd]4 | d2 (3ccc f>f A>A | %23
w: |||
[M:8/4] c4 z4 z8 |] %24
w: |
V:2
 [B,,B,]2 (3[B,,B,][B,,B,][B,,B,] [B,,B,]>[B,,B,] [B,,B,]>[B,,B,] | %1
 [B,,F,]>[B,,F,] [B,,F,]>[B,,F,] [B,,B,]4 | [F,B,F]2 (3[F,A,F][F,A,F][F,A,F] [F,C]2 [F,C]>[F,C] | %3
 [C,C]>[C,C] [C,C]>[C,B,] [F,A,C]>[F,A,C] [F,A,C]>[F,A,C] | %4
 [B,,B,]2 (3[B,,B,][B,,B,][B,,B,] [B,,B,]>[B,,B,] [B,,B,]>[B,,B,] | %5
 [B,,F,]>[B,,F,] [B,,F,]>[B,,F,] [B,,B,]4 | %6
 [F,B,F]2 (3[F,A,F][F,A,F][F,A,F] [F,DF]>[F,DF] [F,CF]>[F,CF] | F2 z2 z4 | %8
 [D,A,]2 (3[D,A,][D,A,][D,A,] [D,A,]2 [D,D]2 | %9
 [G,DG]2 (3[G,DG][G,DG][G,DG] [G,DG]2[K:bass] [G,B,D]2 | %10
 [C,G,]2 (3[C,G,][C,G,][C,G,] [C,G,]2 [C,C]>[C,C] | [F,CF]>[F,DF] [F,CF]>[_E,B,E] [F,A,]4 | %12
 [D,A,]2 (3[D,A,][D,A,][D,A,] [D,A,]2 [D,D]2 | %13
 [G,DG]2 (3[G,DG][G,DG][G,DG] [G,DG]2[K:bass] [G,B,D]2 | %14
 [C,G,]2 [C,G,]>[C,G,] [C,G,]>[C,G,] [C,C]>[C,C] | [F,C]6 z2 | %16
 [B,,B,]2 (3[B,,B,][B,,B,][B,,B,] [B,,B,]>[B,,B,] [B,,B,]>[B,,B,] | %17
 [B,,F,]>[B,,F,] [B,,F,]>[B,,F,] [B,,B,]4 | [F,B,F]2 (3[F,A,F][F,A,F][F,A,F] [F,C]2 [F,C]>[F,C] | %19
 [C,C]>[C,C] [C,C]>[C,B,] [F,A,C]>[F,A,C] [F,A,C]>[F,A,C] | %20
 [B,,B,]2 (3[B,,B,][B,,B,][B,,B,] [B,,B,]>[B,,B,] [B,,B,]>[B,,B,] | %21
 [B,,F,]>[B,,F,] [B,,F,]>[B,,F,] [B,,B,]4 | %22
 [F,B,F]2 (3[F,A,F][F,A,F][F,A,F] [F,DF]>[F,DF] [F,CF]>[F,CF] |[M:8/4] .[F,A,F]4 [B,,B,]4 z8 |] %24
V:3
 x8 | x8 | x8 | x8 | x8 | x8 | x8 | z2 _E2 [DB]4 | x8 | x8 | x8 | x8 | x8 | x8 | x8 | x8 | x8 | %17
 x8 | x8 | x8 | x8 | x8 | x8 |[M:8/4] z2 _E2 [DB]4 z8 |] %24
V:4
 x8 | x8 | x8 | x8 | x8 | x8 | x8 | [F,A,]4 [B,,B,]4 | x8 | x6[K:bass] x2 | x8 | x8 | x8 | %13
 x6[K:bass] x2 | x8 | x8 | x8 | x8 | x8 | x8 | x8 | x8 | x8 |[M:8/4] x16 |] %24

